X: 16302
T: Grinders, The
R: slip jig
M: 9/8
K: Gmajor
|:gfg edc BAG|gfg efg afd|gfg edc BAG|AAA A2B d2B:|
|:AAA A2B G2E|AAA A2B d2B|AAA A2B G2E|dBG GBc d2B:|

